X:612
T: Flevit lepus, Nr. 176, S. 282
N: N1188
O: Luxemburg
S: NEYENS, J.-P.: Jugendgre, Ettelbrck 1912]
M: 2/4
L: 1/16
K: F
C2F2F2F2 | E2G2G4 | A2A2B2G2 | G2F2F4 |
c2A2A2F2 | F2D2D4 | B2AAG2F2 | E2D2C4 |
C2F2F2F2 | E2G2G4 | A2AAB2G2 | G2F2F4

@@@ Tune index: 8666
